lib/flags/sx-sint-maarten.svg

<svg xmlns="http://www.w3.org/2000/svg" fill="none" aria-hidden="true" viewBox="0 0 42 30"><g id="Country=SX - Sint Maarten, Size=sm (36x24)" filter="url(#filter0_dd_91_24927)"><g clip-path="url(#clip0_91_24927)"><g id="flag"><mask id="mask0_91_24927" width="36" height="24" x="3" y="2" maskUnits="userSpaceOnUse" style="mask-type:alpha"><rect id="mask" width="36" height="24" x="3" y="2" fill="white"/></mask><g mask="url(#mask0_91_24927)"><g id="contents"><path id="background" fill="#E31D1C" fill-rule="evenodd" d="M3 2V26H39V2H3Z" clip-rule="evenodd"/><g id="Object"><mask id="mask1_91_24927" width="36" height="24" x="3" y="2" maskUnits="userSpaceOnUse" style="mask-type:alpha"><path id="background_2" fill="white" fill-rule="evenodd" d="M3 2V26H39V2H3Z" clip-rule="evenodd"/></mask><g mask="url(#mask1_91_24927)"><path id="top" fill="#2E42A5" fill-rule="evenodd" d="M3 14V26H39V14H3Z" clip-rule="evenodd"/></g></g><path id="triangle" fill="#F7FCFF" fill-rule="evenodd" d="M3 0V28L25.5 14L3 0Z" clip-rule="evenodd"/><mask id="mask2_91_24927" width="23" height="28" x="3" y="0" maskUnits="userSpaceOnUse" style="mask-type:alpha"><path id="triangle_2" fill="white" fill-rule="evenodd" d="M3 0V28L25.5 14L3 0Z" clip-rule="evenodd"/></mask><g mask="url(#mask2_91_24927)"><g id="mark"><g id="Group 7"><path id="Oval 52" fill="#FBCD17" fill-rule="evenodd" d="M12.1414 12.1888C13.7577 12.1888 15.068 11.2511 15.068 10.0944C15.068 8.9377 13.7577 8 12.1414 8C10.5251 8 9.21484 8.9377 9.21484 10.0944C9.21484 11.2511 10.5251 12.1888 12.1414 12.1888Z" clip-rule="evenodd"/><path id="Path 301" fill="#DA610A" fill-rule="evenodd" d="M12.3974 8.38528C12.1584 8.38528 11.9887 8.52209 11.9887 8.72803L11.9889 8.75074C11.9761 8.78506 11.9689 8.8233 11.9676 8.86611C11.9643 8.97568 12.0102 9.06706 12.1065 9.15089C12.1124 9.17508 12.1155 9.19513 12.1146 9.20651C12.1088 9.18864 12.0855 9.17365 12.0412 9.14512C11.9783 9.10456 11.8728 9.03661 11.7145 8.89404C11.4865 8.68871 11.3144 8.60834 11.1004 8.64028C11.0356 8.64996 10.9721 8.67027 10.8958 8.69741C10.7743 8.73631 10.6624 8.74534 10.4559 8.71029C9.88191 8.61291 9.25235 8.70846 8.5708 8.9892L8.8073 9.44286C9.38898 9.20326 9.90216 9.12537 10.3504 9.20143C10.6584 9.25367 10.8722 9.23641 11.0864 9.16783C11.1787 9.13697 11.1868 9.13438 11.1936 9.13337C11.1868 9.13439 11.1911 9.13811 11.2197 9.16248C11.2389 9.17889 11.2691 9.20468 11.3142 9.24532C11.3785 9.30321 11.4457 9.35561 11.5144 9.40327C11.3824 9.43479 11.3892 9.45643 11.4135 9.53318C11.4233 9.56445 11.4361 9.60488 11.4435 9.65886C11.4595 9.77501 11.434 9.83634 11.4545 9.86663C11.4784 9.90208 11.5654 9.89498 11.8555 9.88349C11.9319 9.88046 12.0351 9.87346 12.1543 9.86344C12.388 9.84379 12.6525 9.81516 12.815 9.79148C12.9728 9.76848 13.0148 9.76008 13.081 9.71725L13.081 9.71724C13.1039 9.69229 13.1235 9.67094 13.1397 9.65193C13.6795 9.58143 14.1595 9.53135 14.5867 9.4968C14.7398 9.48441 14.8629 9.47591 14.982 9.46814C14.9961 9.46802 14.9961 9.46802 15.0654 9.45515L15.0654 9.45515C15.0957 9.44371 15.1082 9.43898 15.1124 9.4374L15.1124 9.4375C15.1134 9.43708 15.1142 9.43675 15.1142 9.43673C15.1142 9.43672 15.1137 9.43691 15.1124 9.4374L15.2503 9.14712L15.1078 8.994C15.023 8.9703 15.0136 8.96768 15.0041 8.96731C15.0029 8.96726 15.0018 8.96725 15.0004 8.96724C14.9829 8.96633 14.9829 8.96633 14.9729 8.96618C14.9278 8.96594 14.9278 8.96594 14.8439 8.96603C14.7505 8.96603 14.6767 8.959 14.57 8.94215L14.4709 8.92595C14.0323 8.85443 13.6256 8.85443 12.763 8.96876C12.7467 8.95758 12.7306 8.94655 12.7148 8.93602C12.8537 8.91456 13.0229 8.89999 13.2017 8.89152L13.2017 8.89152C13.3098 8.88705 13.3098 8.88705 13.3701 8.88562L13.3965 8.88506L13.3932 8.38531L13.3505 8.38528H12.3974ZM11.9314 9.83279C11.9478 9.82965 11.9657 9.82634 11.9852 9.82285L12.0381 9.81281C12.0284 9.81463 12.0177 9.81663 12.0058 9.81883C11.9847 9.82274 11.96 9.82731 11.9314 9.83279Z" clip-rule="evenodd"/></g><path id="shield" fill="#56C6F5" stroke="#E31D1C" d="M11.9347 10.5823L12.0068 10.0875L12.0789 10.5823C13.2004 10.4189 13.9598 10.4343 14.4128 10.5693C14.902 10.7152 15.4545 10.6643 16.049 10.4711C15.8646 11.1973 15.7699 11.8849 15.7699 12.5321C15.7699 13.267 15.9299 13.8602 16.0734 14.3752C16.077 14.3879 16.0805 14.4006 16.084 14.4132C16.2255 14.9204 16.3403 15.3324 16.3403 15.8046C16.3403 16.2101 16.1931 16.4355 15.9513 16.5877C15.6708 16.7642 15.2119 16.8707 14.5557 16.8707C13.6503 16.8707 12.801 17.0924 12.0154 17.5321L12.0068 17.5266L11.9982 17.5321C11.2126 17.0924 10.3633 16.8707 9.45795 16.8707C8.80177 16.8707 8.34286 16.7642 8.06239 16.5877C7.82056 16.4355 7.67334 16.2101 7.67334 15.8046C7.67334 15.3324 7.78819 14.9204 7.92961 14.4132C7.93312 14.4006 7.93665 14.3879 7.9402 14.3752C8.0837 13.8602 8.24376 13.267 8.24376 12.5321C8.24376 11.8849 8.14901 11.1973 7.96468 10.4711C8.55914 10.6643 9.11161 10.7152 9.60081 10.5693C10.0538 10.4343 10.8132 10.4189 11.9347 10.5823Z"/><g id="Combined Shape"><path fill="#F7FCFF" fill-rule="evenodd" d="M12.883 12.6242L12.0152 11.9385L11.1473 12.6242H11.4045V13.0195L10.0544 13.767V15.5956H9.79736V15.9385L10.0544 15.9385H13.9759L14.2974 15.9385V15.5956H13.9759V13.767L12.5617 12.984V12.6242H12.883Z" clip-rule="evenodd"/><path fill="#3B3B3B" d="M12.0152 11.9385L12.0927 11.8404L12.0152 11.7792L11.9377 11.8404L12.0152 11.9385ZM12.883 12.6242V12.7492H13.2429L12.9605 12.5261L12.883 12.6242ZM11.1473 12.6242L11.0698 12.5261L10.7875 12.7492H11.1473V12.6242ZM11.4045 12.6242H11.5295V12.4992H11.4045V12.6242ZM11.4045 13.0195L11.4651 13.1288L11.5295 13.0931V13.0195H11.4045ZM10.0544 13.767L9.99389 13.6577L9.92944 13.6934V13.767H10.0544ZM10.0544 15.5956V15.7206H10.1794V15.5956H10.0544ZM9.79736 15.5956V15.4706H9.67236V15.5956H9.79736ZM9.79736 15.9385H9.67236V16.0635L9.79736 16.0635L9.79736 15.9385ZM10.0544 15.9385L10.0544 16.0635H10.0544V15.9385ZM13.9759 15.9385V16.0635H13.9759L13.9759 15.9385ZM14.2974 15.9385L14.2974 16.0635L14.4224 16.0635V15.9385H14.2974ZM14.2974 15.5956H14.4224V15.4706H14.2974V15.5956ZM13.9759 15.5956H13.8509V15.7206H13.9759V15.5956ZM13.9759 13.767H14.1009V13.6934L14.0364 13.6577L13.9759 13.767ZM12.5617 12.984H12.4367V13.0576L12.5011 13.0933L12.5617 12.984ZM12.5617 12.6242V12.4992H12.4367V12.6242H12.5617ZM11.9377 12.0366L12.8055 12.7223L12.9605 12.5261L12.0927 11.8404L11.9377 12.0366ZM11.2248 12.7223L12.0927 12.0366L11.9377 11.8404L11.0698 12.5261L11.2248 12.7223ZM11.4045 12.4992H11.1473V12.7492H11.4045V12.4992ZM11.2795 12.6242V13.0195H11.5295V12.6242H11.2795ZM11.344 12.9101L9.99389 13.6577L10.115 13.8764L11.4651 13.1288L11.344 12.9101ZM9.92944 13.767V15.5956H10.1794V13.767H9.92944ZM10.0544 15.4706H9.79736V15.7206H10.0544V15.4706ZM9.67236 15.5956V15.9385H9.92236V15.5956H9.67236ZM9.79736 16.0635L10.0544 16.0635L10.0544 15.8135L9.79736 15.8135L9.79736 16.0635ZM10.0544 16.0635H13.9759V15.8135H10.0544V16.0635ZM13.9759 16.0635L14.2974 16.0635L14.2974 15.8135L13.9759 15.8135L13.9759 16.0635ZM14.4224 15.9385V15.5956H14.1724V15.9385H14.4224ZM14.2974 15.4706H13.9759V15.7206H14.2974V15.4706ZM14.1009 15.5956V13.767H13.8509V15.5956H14.1009ZM14.0364 13.6577L12.6222 12.8746L12.5011 13.0933L13.9153 13.8764L14.0364 13.6577ZM12.6867 12.984V12.6242H12.4367V12.984H12.6867ZM12.883 12.4992H12.5617V12.7492H12.883V12.4992Z"/></g><path id="Path 302" fill="#FBCD17" d="M11.9458 19.0204C13.1395 19.0204 13.9613 18.9046 14.3844 18.7071C14.4953 18.5395 14.6899 18.4448 14.8969 18.4516C15.8267 18.4822 16.5468 18.134 17.1129 17.3688C17.7245 16.542 17.8474 15.3675 17.4488 13.8259L18.4608 13.6191C18.9176 15.3855 18.7684 16.8109 17.9805 17.876C17.2745 18.8303 16.3119 19.3401 15.1371 19.3747C14.5371 19.7696 13.4856 19.9435 11.9458 19.9435C10.4563 19.9435 9.35185 19.6864 8.64351 19.1402C7.03489 18.8024 6.01264 18.2321 5.61069 17.3867C5.18222 16.4856 5.18222 15.2346 5.5819 13.6232L6.59601 13.8219C6.23839 15.2638 6.23839 16.3358 6.56722 17.0274C6.79669 17.5099 7.46341 17.9038 8.59295 18.1768L9.64236 18.3763L9.59198 18.6118C10.1039 18.8778 10.8864 19.0204 11.9458 19.0204Z"/><path id="Path 303" fill="#73BE4A" fill-rule="evenodd" d="M8.36257 11.1763C8.24663 11.4325 8.38627 11.7237 8.67449 11.8268L8.69235 11.8332L8.66515 11.8835C8.46803 12.2477 8.80536 12.6236 9.20341 12.6014L9.19045 12.658C9.07498 13.1623 9.72963 13.4143 10.0916 13.1578C10.323 13.1527 10.5504 13.0297 10.6187 12.7726L10.6827 12.5321L10.7085 12.539C11.239 12.6812 11.5978 12.1611 11.3638 11.8096C11.4345 11.6953 11.4551 11.5567 11.4087 11.4222C11.3177 11.1581 11.0031 11.0097 10.7061 11.0906L10.1257 11.2487C10.0483 11.2294 9.96538 11.2247 9.88171 11.2378C9.82563 11.1812 9.75412 11.135 9.66964 11.1048L9.09437 10.8991C8.80616 10.796 8.47852 10.9201 8.36257 11.1763ZM10.1104 12.3787L10.8202 12.015L10.6827 12.5321L10.1104 12.3787Z" clip-rule="evenodd"/><path id="Oval 53" fill="#FBCD17" fill-rule="evenodd" d="M9.98096 12.4761C10.2916 12.4761 10.5435 12.2522 10.5435 11.9761C10.5435 11.6999 10.2916 11.4761 9.98096 11.4761C9.6703 11.4761 9.41846 11.6999 9.41846 11.9761C9.41846 12.2522 9.6703 12.4761 9.98096 12.4761Z" clip-rule="evenodd"/><path id="Combined Shape_2" fill="#F7FCFF" fill-rule="evenodd" d="M14.5212 12.0733C14.512 11.7371 14.47 10.9692 14.278 10.9692C14.085 10.9692 14.0556 11.746 14.0519 12.0792C13.7195 12.1757 13.4692 12.43 13.4692 12.43H15.1247C15.1247 12.43 14.864 12.165 14.5212 12.0733Z" clip-rule="evenodd"/><path id="Path 2" fill="#73BE4A" d="M5.86915 14.5684L6.14624 14.6112C5.92195 15.7573 5.92195 16.579 6.13858 17.0691C6.39073 17.6396 7.87828 18.4048 8.29909 18.4048V18.6548C7.76984 18.6548 6.17456 17.8342 5.87681 17.1606C5.63676 16.6175 5.63676 15.7558 5.86915 14.5684Z"/><path id="Path 2_2" fill="#73BE4A" d="M18.054 14.5088L17.7766 14.5502C17.9796 15.6255 17.9341 16.4645 17.6457 17.066C17.2981 17.791 15.9557 18.7148 15.6037 18.7148V18.9648C16.0776 18.9648 17.5155 17.9753 17.9045 17.164C18.2171 16.5119 18.2651 15.6271 18.054 14.5088Z"/><path id="Path 3" fill="#73BE4A" d="M10.1924 19.4237L10.2454 19.1782C11.1415 19.331 11.7537 19.4074 12.0744 19.4074C12.3945 19.4074 12.9735 19.3312 13.8047 19.1786L13.8616 19.4234C13.0126 19.5793 12.4191 19.6574 12.0744 19.6574C11.7304 19.6574 11.1055 19.5794 10.1924 19.4237Z"/></g></g></g></g></g></g></g><defs><filter id="filter0_dd_91_24927" width="42" height="30" x="0" y="0" color-interpolation-filters="sRGB" filterUnits="userSpaceOnUse"><feFlood flood-opacity="0" result="BackgroundImageFix"/><feColorMatrix in="SourceAlpha" result="hardAlpha" values="0 0 0 0 0 0 0 0 0 0 0 0 0 0 0 0 0 0 127 0"/><feOffset dy="1"/><feGaussianBlur stdDeviation="1"/><feColorMatrix values="0 0 0 0 0.0627451 0 0 0 0 0.0941176 0 0 0 0 0.156863 0 0 0 0.06 0"/><feBlend in2="BackgroundImageFix" result="effect1_dropShadow_91_24927"/><feColorMatrix in="SourceAlpha" result="hardAlpha" values="0 0 0 0 0 0 0 0 0 0 0 0 0 0 0 0 0 0 127 0"/><feOffset dy="1"/><feGaussianBlur stdDeviation="1.5"/><feColorMatrix values="0 0 0 0 0.0627451 0 0 0 0 0.0941176 0 0 0 0 0.156863 0 0 0 0.1 0"/><feBlend in2="effect1_dropShadow_91_24927" result="effect2_dropShadow_91_24927"/><feBlend in="SourceGraphic" in2="effect2_dropShadow_91_24927" result="shape"/></filter><clipPath id="clip0_91_24927"><rect width="36" height="24" x="3" y="2" fill="white" rx="2"/></clipPath></defs></svg>

<svg xmlns="http://www.w3.org/2000/svg" fill="none" aria-hidden="true" viewBox="0 0 42 30"><g filter="url(#a)"><g clip-path="url(#b)"><mask id="c" width="36" height="24" x="3" y="2" maskUnits="userSpaceOnUse" style="mask-type:alpha"><path fill="#fff" d="M3 2h36v24H3z"/></mask><g mask="url(#c)"><path fill="#E31D1C" fill-rule="evenodd" d="M3 2v24h36V2H3Z" clip-rule="evenodd"/><mask id="d" width="36" height="24" x="3" y="2" maskUnits="userSpaceOnUse" style="mask-type:alpha"><path fill="#fff" fill-rule="evenodd" d="M3 2v24h36V2H3Z" clip-rule="evenodd"/></mask><g mask="url(#d)"><path fill="#2E42A5" fill-rule="evenodd" d="M3 14v12h36V14H3Z" clip-rule="evenodd"/></g><path fill="#F7FCFF" fill-rule="evenodd" d="M3 0v28l22.5-14L3 0Z" clip-rule="evenodd"/><mask id="e" width="23" height="28" x="3" y="0" maskUnits="userSpaceOnUse" style="mask-type:alpha"><path fill="#fff" fill-rule="evenodd" d="M3 0v28l22.5-14L3 0Z" clip-rule="evenodd"/></mask><g mask="url(#e)"><g fill-rule="evenodd" clip-rule="evenodd"><path fill="#FBCD17" d="M12.141 12.189c1.617 0 2.927-.938 2.927-2.095 0-1.156-1.31-2.094-2.927-2.094-1.616 0-2.926.938-2.926 2.094 0 1.157 1.31 2.095 2.926 2.095Z"/><path fill="#DA610A" d="M12.397 8.385c-.239 0-.408.137-.408.343v.023a.359.359 0 0 0-.021.115c-.004.11.042.201.139.285a.21.21 0 0 1 .008.056c-.006-.018-.03-.033-.074-.062a2.286 2.286 0 0 1-.327-.251c-.228-.205-.4-.286-.614-.254-.064.01-.128.03-.204.057-.122.04-.234.048-.44.013-.574-.097-1.204-.002-1.885.28l.236.453c.582-.24 1.095-.318 1.543-.242.308.053.522.035.736-.033.093-.031.1-.034.108-.035-.007.001-.003.005.026.03.019.016.05.042.094.082.065.058.132.11.2.158-.132.032-.125.053-.1.13.01.031.022.072.03.126.015.116-.01.177.01.208.024.035.111.028.401.016a12.49 12.49 0 0 0 .96-.092c.158-.023.2-.03.266-.074l.059-.065a29.633 29.633 0 0 1 1.842-.184c.014 0 .014 0 .083-.013l.047-.018h.002-.002l.138-.29-.142-.153A.697.697 0 0 0 15 8.967h-.027l-.13-.001c-.092 0-.166-.007-.273-.024l-.1-.016c-.438-.072-.844-.072-1.707.043a4.408 4.408 0 0 0-.048-.033c.139-.021.308-.036.487-.044.108-.005.108-.005.168-.006h.027l-.004-.5h-.996Zm-.466 1.448.054-.01.053-.01-.032.006-.075.014Z"/></g><path fill="#56C6F5" stroke="#E31D1C" d="m11.935 10.582.072-.495.072.495c1.121-.163 1.88-.148 2.334-.013.489.146 1.041.095 1.636-.098a8.397 8.397 0 0 0-.28 2.061c0 .735.16 1.328.304 1.843l.011.038c.142.507.256.92.256 1.392 0 .405-.147.63-.389.783-.28.176-.74.283-1.395.283-.906 0-1.755.221-2.54.661l-.01-.005-.008.005a5.126 5.126 0 0 0-2.54-.661c-.656 0-1.115-.107-1.396-.283-.241-.152-.389-.378-.389-.783 0-.473.115-.885.257-1.392l.01-.038c.144-.515.304-1.108.304-1.843a8.4 8.4 0 0 0-.28-2.06c.595.192 1.148.243 1.637.097.453-.135 1.212-.15 2.334.013Z"/><path fill="#F7FCFF" fill-rule="evenodd" d="m12.883 12.624-.868-.686-.868.686h.258v.396l-1.35.747v1.829h-.258v.342h4.5v-.342h-.321v-1.829l-1.414-.783v-.36h.321Z" clip-rule="evenodd"/><path fill="#3B3B3B" d="m12.015 11.938.078-.098-.078-.06-.077.06.077.098Zm.868.686v.125h.36l-.283-.223-.077.098Zm-1.736 0-.077-.098-.283.223h.36v-.125Zm.258 0h.125V12.5h-.125v.125Zm0 .396.06.109.065-.036v-.073h-.125Zm-1.35.747-.061-.11-.065.036v.074h.125Zm0 1.829v.125h.124v-.125h-.125Zm-.258 0v-.125h-.125v.125h.125Zm0 .342h-.125v.126h.125v-.126Zm.257 0v.126-.126Zm3.922 0v.126-.126Zm.321 0v.126h.125v-.126h-.125Zm0-.342h.125v-.125h-.125v.125Zm-.321 0h-.125v.125h.125v-.125Zm0-1.829h.125v-.074l-.065-.035-.06.109Zm-1.414-.783h-.125v.074l.064.035.06-.109Zm0-.36V12.5h-.125v.125h.125Zm-.624-.587.867.685.155-.196-.867-.686-.155.197Zm-.713.685.868-.685-.155-.197-.868.686.155.196Zm.18-.223h-.258v.25h.258v-.25Zm-.125.125v.396h.25v-.396h-.25Zm.064.286-1.35.748.121.218 1.35-.747-.121-.219Zm-1.415.857v1.829h.25v-1.829h-.25Zm.125 1.704h-.257v.25h.257v-.25Zm-.382.125v.342h.25v-.342h-.25Zm.125.468h.257v-.25h-.257v.25Zm.257 0h3.922v-.25h-3.922v.25Zm3.922 0h.321v-.25h-.321v.25Zm.446-.126v-.342h-.25v.342h.25Zm-.125-.467h-.321v.25h.321v-.25Zm-.196.125v-1.829h-.25v1.829h.25Zm-.065-1.938-1.414-.783-.12.218 1.413.783.121-.218Zm-1.35-.674v-.36h-.25v.36h.25Zm.197-.485h-.321v.25h.321v-.25Z"/><path fill="#FBCD17" d="M11.946 19.02c1.194 0 2.015-.115 2.438-.313a.587.587 0 0 1 .513-.255c.93.03 1.65-.318 2.216-1.083.611-.827.734-2.002.336-3.543l1.012-.207c.457 1.767.307 3.192-.48 4.257-.707.954-1.67 1.464-2.844 1.499-.6.395-1.651.569-3.191.569-1.49 0-2.594-.258-3.302-.804-1.61-.338-2.631-.908-3.033-1.753-.429-.901-.429-2.152-.03-3.764l1.015.199c-.358 1.442-.358 2.514-.029 3.205.23.483.896.877 2.026 1.15l1.05.2-.051.235c.512.266 1.294.408 2.354.408Z"/><path fill="#73BE4A" fill-rule="evenodd" d="M8.363 11.176c-.116.256.023.548.311.65l.018.007-.027.05c-.197.365.14.74.538.718l-.013.057c-.115.504.54.756.902.5.231-.005.458-.128.527-.385l.064-.24.026.006c.53.142.889-.378.655-.73a.45.45 0 0 0 .045-.387c-.091-.264-.406-.412-.703-.331l-.58.158a.615.615 0 0 0-.244-.011.564.564 0 0 0-.212-.133l-.576-.206c-.288-.103-.615.021-.731.277Zm1.747 1.203.71-.364-.137.517-.573-.153Z" clip-rule="evenodd"/><path fill="#FBCD17" fill-rule="evenodd" d="M9.981 12.476c.31 0 .563-.224.563-.5s-.252-.5-.563-.5c-.31 0-.563.224-.563.5s.252.5.563.5Z" clip-rule="evenodd"/><path fill="#F7FCFF" fill-rule="evenodd" d="M14.521 12.073c-.009-.336-.051-1.104-.243-1.104-.193 0-.222.777-.226 1.11a1.535 1.535 0 0 0-.583.351h1.656s-.261-.265-.604-.357Z" clip-rule="evenodd"/><path fill="#73BE4A" d="m5.87 14.568.276.043c-.224 1.146-.224 1.968-.007 2.458.252.57 1.74 1.336 2.16 1.336v.25c-.53 0-2.124-.82-2.422-1.494-.24-.544-.24-1.405-.008-2.593Zm12.184-.059-.277.041c.203 1.075.157 1.915-.131 2.516-.348.725-1.69 1.649-2.042 1.649v.25c.474 0 1.912-.99 2.3-1.801.313-.652.361-1.537.15-2.655Zm-7.862 4.915.053-.246c.897.153 1.509.23 1.83.23.32 0 .899-.077 1.73-.23l.057.245c-.85.156-1.443.234-1.788.234-.344 0-.969-.078-1.882-.233Z"/></g></g></g></g><defs><clipPath id="b"><rect width="36" height="24" x="3" y="2" fill="#fff" rx="2"/></clipPath><filter id="a" width="42" height="30" x="0" y="0" color-interpolation-filters="sRGB" filterUnits="userSpaceOnUse"><feFlood flood-opacity="0" result="BackgroundImageFix"/><feColorMatrix in="SourceAlpha" result="hardAlpha" values="0 0 0 0 0 0 0 0 0 0 0 0 0 0 0 0 0 0 127 0"/><feOffset dy="1"/><feGaussianBlur stdDeviation="1"/><feColorMatrix values="0 0 0 0 0.0627451 0 0 0 0 0.0941176 0 0 0 0 0.156863 0 0 0 0.06 0"/><feBlend in2="BackgroundImageFix" result="effect1_dropShadow_91_24927"/><feColorMatrix in="SourceAlpha" result="hardAlpha" values="0 0 0 0 0 0 0 0 0 0 0 0 0 0 0 0 0 0 127 0"/><feOffset dy="1"/><feGaussianBlur stdDeviation="1.5"/><feColorMatrix values="0 0 0 0 0.0627451 0 0 0 0 0.0941176 0 0 0 0 0.156863 0 0 0 0.1 0"/><feBlend in2="effect1_dropShadow_91_24927" result="effect2_dropShadow_91_24927"/><feBlend in="SourceGraphic" in2="effect2_dropShadow_91_24927" result="shape"/></filter></defs></svg>
